X:6
T:Landsdowne Lass
R:reel
C:Josie McDermott
D:Marcus O'Murchu- Turas Ceoil
S:Clare FM
Z:psc -  http://www.cranfordpub.com
L:1/8
Q:333
M:C|
K:D
E|DEFA GEAF|D2 FA defa|g2 ed cAFA|G2 FG EGFE|
D2 FA GEAF|DEFA defa|g2 ed cAFA|GBAF D2 z:|
|:A|d2 fd Adfa |b2 af gfed|cA ~A2 BGGF|G2 FG EFGE|
Df ~f2 g2 fg|a2ge fded|ABce d2 AG|EGFE D2 D:|
